media/dbt-icon.svg

<svg xmlns="http://www.w3.org/2000/svg" viewBox="0 0 32 32">
  <path d="M30.3632 1.53951C31.1026 2.25417 31.5896 3.19285 31.7034 4.22041C31.7034 4.64708 31.5897 4.93508 31.3302 5.47197C31.0706 6.01241 27.9103 11.4844 26.9646 12.9991C26.4243 13.888 26.1399 14.9404 26.1399 15.9644C26.1399 16.9884 26.4278 18.0444 26.9646 18.9297C27.9032 20.4444 31.0706 25.9413 31.3302 26.4924C31.5897 27.0329 31.7034 27.2924 31.7034 27.7191C31.5896 28.7466 31.1382 29.6853 30.3881 30.3715C29.6735 31.1111 28.735 31.5982 27.736 31.6871C27.3094 31.6871 27.0215 31.5733 26.5096 31.3137C25.9977 31.0542 11.0525 22.4142 11.0525 22.4142C11.2267 23.84 11.8524 25.2089 12.8798 26.208C13.0789 26.4071 13.2815 26.5813 13.5054 26.7484C13.3312 26.8337 5.95466 31.1431 5.40719 31.4026C4.86684 31.6622 4.60732 31.776 4.15584 31.776C3.12843 31.6622 2.18991 31.2106 1.5038 30.4604C0.764363 29.7457 0.277334 28.8071 0.163574 27.7795C0.188459 27.3529 0.312879 26.9262 0.536844 26.5529C0.796358 26.0124 3.95672 20.5049 4.90235 18.9902C5.44271 18.1013 5.72714 17.0773 5.72714 16.0249C5.72714 14.9724 5.43915 13.9449 4.90235 13.0595C3.96383 11.4951 0.771473 5.98397 0.536844 5.44708C0.309324 5.07374 0.199124 4.64708 0.163574 4.22041C0.277334 3.19285 0.728817 2.25417 1.47892 1.53951C2.19347 0.799953 3.13198 0.337739 4.15939 0.223961C4.58599 0.24885 5.01259 0.37329 5.41075 0.59729C5.86223 0.796401 20.7754 9.59286 20.7754 9.59286C20.6012 7.88619 19.7622 6.34308 18.3865 5.29063C18.4931 5.23375 25.8981 0.842623 26.4491 0.607956C26.8224 0.380401 27.249 0.270183 27.7005 0.234627C28.6995 0.348405 29.6415 0.799953 30.3525 1.55017L30.3703 1.54307L30.3632 1.53951ZM16.4632 18.6631L18.5962 16.5226C18.8913 16.224 18.8913 15.7795 18.5962 15.4702L16.4632 13.3297C16.1681 13.0311 15.7237 13.0311 15.4144 13.3297L13.2815 15.4702C12.9864 15.7689 12.9864 16.2133 13.2815 16.5226L15.4144 18.6631C15.6775 18.9262 16.1539 18.9262 16.4632 18.6631Z" fill="#FE6703"/>
</svg>

<svg xmlns="http://www.w3.org/2000/svg" viewBox="0 0 32 32"><path fill="#fe6703" d="M30.363 1.54a4.4 4.4 0 0 1 1.34 2.68c0 .427-.113.715-.373 1.252-.26.54-3.42 6.012-4.365 7.527a5.8 5.8 0 0 0-.825 2.965 5.8 5.8 0 0 0 .825 2.966c.938 1.514 4.106 7.011 4.365 7.562.26.54.373.8.373 1.227-.113 1.028-.565 1.966-1.315 2.653-.715.74-1.653 1.226-2.652 1.315-.427 0-.715-.114-1.226-.373-.512-.26-15.458-8.9-15.458-8.9.175 1.426.8 2.795 1.828 3.794.199.2.401.373.625.54-.174.086-7.55 4.395-8.098 4.655-.54.26-.8.373-1.251.373-1.028-.114-1.966-.565-2.652-1.316a4.4 4.4 0 0 1-1.34-2.68c.024-.427.149-.854.373-1.227.26-.54 3.42-6.048 4.365-7.563a5.7 5.7 0 0 0 .825-2.965 5.7 5.7 0 0 0-.825-2.965C3.964 11.495.772 5.984.537 5.446A2.8 2.8 0 0 1 .164 4.22a4.33 4.33 0 0 1 1.315-2.68A4.38 4.38 0 0 1 4.159.224c.427.025.854.15 1.252.373.451.2 15.364 8.996 15.364 8.996a6.16 6.16 0 0 0-2.388-4.302c.106-.057 7.511-4.448 8.062-4.683.373-.228.8-.338 1.252-.373a4.3 4.3 0 0 1 2.651 1.315l.018-.007zm-13.9 17.123 2.133-2.14c.295-.299.295-.743 0-1.053l-2.133-2.14c-.295-.299-.74-.299-1.049 0l-2.133 2.14c-.295.299-.295.743 0 1.053l2.133 2.14c.264.263.74.263 1.05 0"/></svg>
